!!!SOCIAL_FUNCTION:	songs of war
!!!PDT:	1918

Specific Region: Dakotas, Minnesota, Montana, Nebraska
!!!REG: Dakotas and Montana
!!!LING_GROUP: Siouan
!!!LANG: Tone
!!!OTL@ENG: Tell Her
!!!ONM: No. 143
**kern
*Imale
*clefF4
*M3/4
*MM76
4.e
8c
4c
=1||
*M2/4
4e
4c
=2||
*M3/4
4.e
8c
4c
=3||
*M2/4
4c
4A
=4||
*M3/4
4c
4c
16A
8.A
=5||
*M2/4
4c
4A
=6||
*M3/4
8.c
16d
4c
16A
8.A
=7||
*M2/4
4A
4E
=8
8A
8A
[4A
=9
4A]
4G
=10
16A
8.G
16G
8.G
=11
8G
8E
4E
=12
8A
8G
[4A
=13
4A]
4G
=14
16A
8.G
8G
8E
=15||
*M3/4
16F
8.E
8C
8C
4AA
=16||
*M2/4
8C
8C
4E
=17
8C
8C
8AA
8AA
=18
2AA
=19
2AA
=20||
*M3/4
8A
8A
16A
8.c
8A
8A
=21||
*M2/4
(4c
4A)
=22||
*M3/4
8.c
16d
4c
16A
8.A
=23||
*M2/4
4A
4E
=24||
*M3/4
4A
4A
8A
8G
=25||
*M2/4
16A
8.G
16G
8.G
=26
8G
8E
4E
=27
8A
8G
[4F
=28
4F]
4G
=29
16A
8.F
8F
8E
=30||
*M3/4
16F
8.E
8C
8C
4AA
=31||
*M2/4
8C
8C
4E
=32
8C
8C
8AA
8AA
=33
2AA
=34
2AA
==
*-
!!!CNT: Native American -- Sioux
!!!MRD: 1911/07//-1914///
!!!OCL: Frances Densmore
!!!YOR1: Teton Sioux Music, Bulletin 61,
!!!YOR2: Bureau of American Ethnology, Smithsonian Institution
!!!PPR: Government Printing Office
!!!PPP: Washington, D.C.
!!!PDT: 1918///
!!!ENC: Craig Stuart Sapp
!!!END: 2002/03/25/
!!!EEV: 2002/03/31/
!!!AGN: War Song/Song of a Typical War Expedition
!!!MPN@@SIO: Waha'changka-ya'pi
!!!MPN@ENG: Used-as-a-Shield
!!!TXO: Teton Sioux
!!!MLC: Standing Rock Reservation, South Dakota, United States of America
!!!ARL: 45.9/-100.7#
!!!catalog: Catalogue No. 621
!!!PPG: 358
!!!EFL: 147/245
!!!VTS: 836884694
